X: 1
T: The braes aboon Bonaw
O: Arr: Peter White
R: strathspey
Z: 2010 John Chambers <jc:trillian.mit.edu>
M: C
L: 1/8
K: D
|:"D"D>F A>B A<F A<d | "Bm"D>F "F#m"A>F "E"F<E "A7"E>F \
| "D"D>F "F#m"A>B "Bm"d>e "F#"ff/e/ | "G"d>B "D"d>F "Em"E2 "A7"F>A |
| "D"d>e f>e d>A F<A | "Bm"d>e fd "G"B2 "A7"B<e \
| "D"d>e "F#"f>d "F#7"e>f "Bm"dA | "G"B<d "D"A>F "A7"E2 "D"D<d :|
